X: 1
T: Cannon Mountain
%R: reel
F: http://ancients.sudburymuster.org/mus/med/pdf/clemC0.pdf
Z: 2020 John Chambers <jc:trillian.mit.edu>
M: 2/4
L: 1/16
K: Bm
% - - - - - - - - - -
G2 |\
FB2F B2Bc | dcB2 fdB2 |\
c2A2 ecA2 | ce2c A2G2 |\
FB2F B2Bc | dBc2 d2e2 |\
f2b2 fed2 | c2F2 B2 :|
z2 |:\
A2ce A2ce | d2fa d2fa | e2^gb e2gb |\
[1,3 a2{b}a2 {b}a2 (3(dcB) :|[2,4 a2z2 e4 |]
